X:2
T:No.35 King George IV
C:strathspey
M:4/4
L:1/8
K:D
A,2 A,2 (3=CB,A, E>A,|A,2 A,2 B,>A, (3G,A,B,|A,2 A,2 (3=CB,A, E>A,|
B,>D G>E (3DED (3B,A,G,:|c<e A>B c<A e>A|c<e A>=c B<A (3GAB|
c<e A>B c<A e>A|B>d g>e (3ded (3BAG|c<e A>B c<A e>A|
c<e A>=c B<A (3GAB|A<a A<g A<f e>F|E>F G>E (3DED (3B,A,G,||
